X:110
T:Cavendish Court, or Look Sharp
M:3/4
L:1/8
N:"The Minuet 4 times, the last Tune twice.
B:Thompson's Compleat Collection of 200 Favourite Country Dances, vol. 1 (London, 1757)
Z:Transcribed and edited by Fynnian Titford-Mock, 2007
Z:abc's:AK/Fiddler's Companion
K:G
G4g2|f>a d2d2|c>e A2A2|F>A D2D2|EGFAGB|A2 ^c2 d2|fa A2 ^c2|d2 D4:|
M:2/4
L:1/8
|:G/g/f/e/ d/c/B/A/|D/d/c/B/ A/G/F/E/|DD D2 |B/d/B/G/ c/e/c/A/|f/d/e/f/ gg|B/d/B/G/ A/c/A/F/|GG G2:|

